src/assets/mobile/bigroup.svg

<svg width="99" height="24" viewBox="0 0 99 24" fill="none" xmlns="http://www.w3.org/2000/svg">
<path d="M12.7754 0.109533C12.1507 0.170385 11.1014 0.352941 10.4393 0.511156C5.19253 1.81339 1.6697 5.16024 0.807728 9.65112C0.507912 11.1724 0.607851 14.0081 0.98262 15.3103C2.10693 19.0953 5.01764 21.8824 9.27751 23.2333C11.0889 23.8053 12.4256 24 14.6742 24C17.5974 23.9878 19.5337 23.5619 22.0447 22.357C25.1427 20.8844 27.3539 18.3043 28.2533 15.1278C28.4907 14.3002 28.5282 13.8377 28.5282 12.0243C28.5282 9.56592 28.3408 8.70183 27.4663 6.91278C25.605 3.10345 21.445 0.584179 16.2232 0.109533C14.6367 -0.0365111 14.4243 -0.0365111 12.7754 0.109533ZM17.3725 0.778905C21.2701 1.38742 24.6555 3.45639 26.3795 6.25558C27.6162 8.26369 28.1659 10.856 27.8786 13.3022C27.7287 14.6775 27.179 16.4544 26.6418 17.3793C24.8304 20.4706 21.4825 22.5882 17.3101 23.2941C15.5861 23.5862 12.3506 23.4767 10.6642 23.0507C4.7553 21.6024 1.24496 17.5254 1.24496 12.0852C1.24496 10.4544 1.39487 9.46856 1.85708 8.16633C3.76841 2.76268 10.2769 -0.352941 17.3725 0.778905Z" fill="#090C21"/>
<path d="M12.8128 1.3144C10.0645 1.65518 7.84091 2.49493 5.92959 3.9067C3.09383 6.01217 1.59475 9.52941 1.99451 13.144C2.25685 15.5538 3.05635 17.3306 4.6054 18.9858C7.12885 21.6755 11.726 23.1968 16.0234 22.7586C21.9572 22.1501 26.0422 19.0223 27.0291 14.3124C27.2914 13.1075 27.2914 10.9412 27.0291 9.73631C25.9797 4.77079 21.3701 1.48479 15.1114 1.25355C14.3244 1.22921 13.2876 1.25355 12.8128 1.3144ZM14.5493 5.82962C15.2114 6.02434 15.5237 6.2069 16.0484 6.70588C16.7979 7.41177 16.9853 7.88641 16.9853 9.03043C16.9853 9.94321 16.648 10.6369 15.9109 11.2698L15.3613 11.7444L15.861 11.9635C16.5231 12.2556 17.435 13.217 17.5974 13.8012C18.1346 15.6876 17.2601 17.4037 15.3738 18.1339C14.6992 18.4016 14.5243 18.4138 10.8016 18.4138H6.92897L6.89149 12.146C6.879 8.70183 6.89149 5.80528 6.92897 5.72008C6.96645 5.61055 7.76596 5.57404 10.3519 5.57404C13.4 5.57404 13.7872 5.59838 14.5493 5.82962ZM22.2071 5.72008C22.4444 5.95132 22.4194 18.146 22.1821 18.3408C22.0696 18.4381 21.5575 18.4746 20.7205 18.4503L19.4213 18.4138L19.3838 12.146C19.3713 8.70183 19.3838 5.80528 19.4213 5.72008C19.4962 5.51319 21.9947 5.51319 22.2071 5.72008Z" fill="#090C21"/>
<path d="M9.73975 10.8438L11.3638 10.783C13.2626 10.6978 13.6998 10.5396 13.9497 9.78499C14.0871 9.40771 14.0746 9.26167 13.9247 8.90873C13.6498 8.27587 13.1751 8.12982 11.3013 8.12982H9.73975V10.8438Z" fill="#090C21"/>
<path d="M9.73975 15.9189H11.6886C14.237 15.9189 14.7492 15.6998 14.7617 14.5923C14.7742 13.4604 14.2745 13.2414 11.6886 13.2414H9.73975V15.9189Z" fill="#090C21"/>
<path d="M36.6732 5.64706C33.5501 6.38946 31.3889 9.34686 31.6513 12.572C31.9511 16.1988 34.6369 18.5842 38.4221 18.5964C40.1086 18.5964 42.3197 17.8783 43.4565 16.9534L43.8438 16.6248L43.8188 13.9838L43.7813 11.355H38.4096V13.1805L41.7201 13.2536V15.6876L40.933 16.0406C38.8093 17.0142 36.8481 16.783 35.3989 15.3834C34.3621 14.3854 34.0498 13.6187 34.0498 12.0243C34.0498 10.9777 34.0873 10.7951 34.437 10.0649C35.374 8.11765 37.0854 7.1927 39.1591 7.5213C39.9212 7.64301 40.9955 8.08114 41.6826 8.56796C41.9324 8.73834 41.9699 8.72617 42.4321 8.25152C42.6945 7.97161 42.9943 7.61867 43.0942 7.46045C43.2566 7.1927 43.2441 7.14402 43.0317 6.91278C41.9574 5.7566 38.8343 5.13591 36.6732 5.64706Z" fill="#090C21"/>
<path d="M63.7814 5.63489C60.7208 6.38946 58.7095 8.93307 58.7095 12.0609C58.7095 15.7728 61.6203 18.5964 65.4554 18.5964C69.3405 18.5842 72.3262 15.7363 72.3262 12.0243C72.3262 9.15213 70.5897 6.7424 67.8539 5.79311C66.9045 5.46451 64.8058 5.39149 63.7814 5.63489ZM66.2799 7.53347C67.729 7.78905 68.9033 8.70183 69.5529 10.0527C69.8527 10.6613 69.8902 10.8925 69.8902 12.0243C69.8902 13.1684 69.8527 13.3753 69.5404 14.0325C67.9039 17.4523 63.1068 17.428 61.4828 13.9959C60.8582 12.6572 60.9707 10.6613 61.7702 9.46856C62.4073 8.5071 63.5316 7.74037 64.6309 7.5213C65.3555 7.38743 65.4554 7.38743 66.2799 7.53347Z" fill="#090C21"/>
<path d="M46.4046 5.84178C46.3672 5.92698 46.3547 8.76267 46.3672 12.146L46.4046 18.2921H48.5283L48.5658 16.1258L48.5908 13.9716H51.4515L54.6496 18.3529H55.8863C57.0231 18.3529 57.1105 18.3408 57.0481 18.1217C57.0231 18 56.311 16.9655 55.4741 15.8215C54.6496 14.6775 53.9625 13.6917 53.9625 13.6308C53.9625 13.57 54.2248 13.4239 54.5621 13.3022C55.4116 12.9736 56.4734 11.9026 56.7483 11.0629C57.3354 9.27383 56.7108 7.36308 55.2367 6.43813C54.1873 5.78093 53.5377 5.69574 49.815 5.69574C47.2416 5.69574 46.4421 5.73225 46.4046 5.84178ZM53.5627 7.98377C54.8744 8.66531 55.0618 10.284 53.95 11.3185C53.3254 11.8905 52.6883 12.0243 50.4022 12.0243H48.5908V9.91886C48.5908 8.7505 48.6283 7.7647 48.6782 7.71602C48.7407 7.66734 49.7276 7.643 50.9019 7.66734C52.8257 7.70385 53.0755 7.72819 53.5627 7.98377Z" fill="#090C21"/>
<path d="M74.4749 5.84178C74.2875 6.02433 74.275 12.7059 74.4499 14.0446C74.7747 16.4665 76.2363 18.0487 78.5723 18.4746C80.721 18.8763 82.8447 18.3286 84.069 17.0629C85.3806 15.712 85.568 14.86 85.568 9.87018C85.568 7.78904 85.5305 5.99999 85.4931 5.89046C85.4306 5.73224 85.2058 5.69573 84.3813 5.69573H83.3319L83.2944 9.91886C83.257 14.0811 83.257 14.1663 82.9571 14.7992C82.6074 15.5537 81.8453 16.2353 81.1458 16.4178C80.8709 16.4909 80.2088 16.5274 79.6966 16.503C78.335 16.4544 77.6729 16.0406 77.0733 14.8965L76.636 14.0568L76.5985 9.88235L76.5486 5.69573H75.5867C74.9995 5.69573 74.5623 5.75659 74.4749 5.84178Z" fill="#090C21"/>
<path d="M88.3788 5.84177C88.3413 5.92697 88.3288 8.76267 88.3413 12.146L88.3788 18.2921H90.5025L90.54 16.3326L90.5649 14.3732L92.4763 14.3002C95.1871 14.2028 96.5987 13.7038 97.4982 12.5598C98.4351 11.3671 98.635 9.54157 97.9979 8.15415C97.5731 7.21703 96.7112 6.42595 95.7118 6.0365C95.0497 5.78092 94.7998 5.75658 91.7142 5.72007C89.1033 5.68356 88.4288 5.7079 88.3788 5.84177ZM94.9747 8.04461C96.5113 8.93305 96.4363 11.1116 94.8248 11.927C94.1877 12.2556 94.0878 12.2677 92.3638 12.2677H90.5649V10.0406C90.5649 8.81135 90.6024 7.7647 90.6649 7.71601C90.7148 7.66733 91.5643 7.64299 92.5637 7.66733C94.2876 7.70384 94.4001 7.72818 94.9747 8.04461Z" fill="#090C21"/>
</svg>

<svg xmlns="http://www.w3.org/2000/svg" width="99" height="24" fill="none"><path fill="#090C21" d="M12.775.11A21 21 0 0 0 10.44.51C5.193 1.813 1.67 5.161.808 9.651c-.3 1.521-.2 4.357.175 5.66 1.124 3.784 4.035 6.571 8.295 7.922 1.81.572 3.148.767 5.396.767 2.923-.012 4.86-.438 7.37-1.643 3.099-1.473 5.31-4.053 6.21-7.23.237-.827.274-1.29.274-3.103 0-2.458-.187-3.322-1.062-5.111C25.605 3.103 21.445.584 16.223.11c-1.586-.147-1.799-.147-3.448 0m4.597.669c3.898.608 7.284 2.677 9.008 5.477 1.236 2.008 1.786 4.6 1.499 7.046-.15 1.376-.7 3.152-1.237 4.077-1.812 3.092-5.16 5.21-9.332 5.915-1.724.292-4.96.183-6.646-.243-5.909-1.449-9.419-5.526-9.419-10.966 0-1.63.15-2.616.612-3.919C3.768 2.763 10.277-.353 17.373.78"/><path fill="#090C21" d="M12.813 1.314c-2.748.341-4.972 1.18-6.883 2.593-2.836 2.105-4.335 5.622-3.935 9.237.262 2.41 1.061 4.187 2.61 5.842 2.524 2.69 7.121 4.21 11.418 3.773 5.934-.609 10.02-3.737 11.006-8.447.262-1.204.262-3.37 0-4.576-1.05-4.965-5.659-8.251-11.918-8.482-.787-.025-1.823 0-2.298.06m1.736 4.516c.662.194.975.377 1.5.876.749.706.936 1.18.936 2.324 0 .913-.337 1.607-1.074 2.24l-.55.474.5.22c.662.292 1.574 1.253 1.736 1.837.538 1.887-.337 3.603-2.223 4.333-.675.268-.85.28-4.572.28H6.929l-.038-6.268c-.012-3.444 0-6.34.038-6.426.037-.11.837-.146 3.423-.146 3.048 0 3.435.024 4.197.256m7.658-.11c.237.231.212 12.426-.025 12.62-.112.098-.624.135-1.461.11l-1.3-.036-.037-6.268c-.013-3.444 0-6.34.037-6.426.075-.207 2.574-.207 2.786 0"/><path fill="#090C21" d="m9.74 10.844 1.624-.061c1.899-.085 2.336-.243 2.586-.998.137-.377.125-.523-.025-.876-.275-.633-.75-.78-2.624-.78H9.74zM9.74 15.919h1.949c2.548 0 3.06-.22 3.073-1.327.012-1.132-.488-1.35-3.073-1.35h-1.95zM36.673 5.647c-3.123.742-5.284 3.7-5.022 6.925.3 3.627 2.986 6.012 6.771 6.024 1.687 0 3.898-.718 5.035-1.643l.387-.328-.025-2.641-.038-2.629H38.41v1.826l3.31.073v2.434l-.787.353c-2.124.973-4.085.742-5.534-.658-1.037-.998-1.35-1.764-1.35-3.359 0-1.046.038-1.229.388-1.96.937-1.946 2.648-2.871 4.722-2.543.762.122 1.837.56 2.524 1.047.25.17.287.158.75-.316.261-.28.561-.633.661-.792.163-.267.15-.316-.062-.547-1.075-1.156-4.198-1.777-6.359-1.266M63.781 5.635c-3.06.754-5.071 3.298-5.071 6.426 0 3.712 2.91 6.535 6.745 6.535 3.886-.012 6.871-2.86 6.871-6.572 0-2.872-1.736-5.282-4.472-6.23-.95-.33-3.048-.403-4.073-.16m2.499 1.898c1.449.256 2.623 1.169 3.273 2.52.3.608.337.84.337 1.971 0 1.144-.037 1.351-.35 2.009-1.636 3.42-6.433 3.395-8.057-.037-.625-1.339-.512-3.335.287-4.527.637-.962 1.762-1.729 2.86-1.948.726-.134.825-.134 1.65.012M46.405 5.842c-.038.085-.05 2.92-.038 6.304l.038 6.146h2.123l.038-2.166.025-2.154h2.86l3.199 4.38h1.236c1.137 0 1.224-.011 1.162-.23-.025-.122-.737-1.157-1.574-2.3-.824-1.144-1.511-2.13-1.511-2.191s.262-.207.6-.329c.849-.328 1.91-1.4 2.185-2.24.587-1.788-.037-3.699-1.511-4.624-1.05-.657-1.7-.742-5.422-.742-2.573 0-3.373.036-3.41.146m7.158 2.142c1.311.681 1.499 2.3.387 3.335-.625.571-1.262.705-3.548.705h-1.811V9.92c0-1.168.037-2.154.087-2.203.063-.049 1.05-.073 2.224-.049 1.924.037 2.173.061 2.66.317M74.475 5.842c-.187.182-.2 6.864-.025 8.203.325 2.422 1.786 4.004 4.122 4.43 2.149.401 4.273-.146 5.497-1.412 1.312-1.351 1.499-2.203 1.499-7.193 0-2.081-.037-3.87-.075-3.98-.062-.158-.287-.194-1.112-.194h-1.05l-.037 4.223c-.037 4.162-.037 4.247-.337 4.88-.35.755-1.112 1.436-1.811 1.619-.275.073-.937.11-1.45.085-1.361-.049-2.023-.462-2.623-1.607l-.437-.84-.037-4.174-.05-4.186h-.962c-.588 0-1.025.06-1.112.146M88.379 5.842c-.038.085-.05 2.92-.038 6.304l.038 6.146h2.123l.038-1.96.025-1.959 1.911-.073c2.711-.097 4.123-.596 5.022-1.74.937-1.193 1.137-3.018.5-4.406-.425-.937-1.287-1.728-2.286-2.117-.662-.256-.912-.28-3.998-.317-2.61-.036-3.285-.012-3.335.122m6.596 2.203c1.536.888 1.461 3.067-.15 3.882-.637.329-.737.34-2.461.34h-1.8v-2.226c0-1.23.038-2.276.1-2.325.05-.049.9-.073 1.9-.049 1.724.037 1.836.061 2.41.378"/></svg>
